X: 43
T: The Bright Love of My Heart
M: 3/4
L: 1/4
B: "O'Neill's 43"
N: "Gracefully" "collected by J. O'Neill"
Z: "Transcribed by Norbert Paap, norbertp@bdu.uva.nl"
K:Gm
d3/4c/4|BAG|FDC|B,CD/2E/2|FGA|\
BAG|dcB/2A/2|GAG|F D d3/4-c/4|
BAG|FDC|B,CD/2E/2|FGA|\
B c d/4e/4f/2|g2 d/2-c/2|B-G .G|G2||
G3/4-A/4|B cd/2e/2|f d f|g ab/2a/2|g f g/2-a/2|\
bag|fdc|d g ba|g2 b3/4-a/4|
.g/2.b/2.a/2.g/2.f/2.e/2|d2 d/2-c/2|BAG|F D G/2-A/2|\
B c d/4e/4f/2|g2 d/2c/2|BGG|G2|:|
